dist/icons/services/project-management.svg

<svg width="80" height="80" viewBox="0 0 80 80" fill="none" xmlns="http://www.w3.org/2000/svg">
<path d="M39.8425 0.000310178C36.2505 0.0102625 32.6764 0.506434 29.2175 1.47531L31.1425 6.12531C38.6192 4.14567 46.5399 4.68544 53.6788 7.6611C60.8178 10.6368 66.777 15.8824 70.6342 22.5862C74.4914 29.29 76.0316 37.0783 75.0164 44.7457C74.0012 52.413 70.4872 59.5321 65.0182 65.001C59.5493 70.47 52.4302 73.984 44.7629 74.9992C37.0955 76.0144 29.3072 74.4743 22.6034 70.617C15.8996 66.7598 10.654 60.8006 7.67831 53.6616C4.70265 46.5227 4.16288 38.602 6.14252 31.1253L1.49252 29.1753C-0.776698 37.2478 -0.451619 45.8293 2.42182 53.7069C5.29525 61.5846 10.5717 68.36 17.5055 73.0756C24.4393 77.7912 32.6796 80.2085 41.062 79.9859C49.4444 79.7633 57.5449 76.9119 64.2186 71.8349C70.8922 66.7578 75.8016 59.7119 78.2528 51.6928C80.704 43.6737 80.5731 35.0871 77.8785 27.1464C75.184 19.2058 70.0621 12.3128 63.2368 7.44156C56.4114 2.57034 48.2278 -0.0327032 39.8425 0.000310178Z" fill="#C3B18D"/>
<path d="M13.4672 34.2502C12.2194 39.9516 12.8509 45.9038 15.2672 51.2165C17.6835 56.5292 21.7547 60.9169 26.8721 63.7234C31.9894 66.5299 37.8778 67.6043 43.6565 66.786C49.4352 65.9677 54.7937 63.3006 58.9306 59.1836C63.0675 55.0666 65.7605 49.7211 66.6067 43.9464C67.4529 38.1716 66.407 32.2782 63.6252 27.1473C60.8435 22.0165 56.4755 17.9241 51.1746 15.4822C45.8736 13.0402 39.9245 12.38 34.2171 13.6002L35.7671 17.5002C40.623 16.5911 45.6424 17.2626 50.0885 19.4163C54.5346 21.57 58.1731 25.0923 60.4699 29.4661C62.7667 33.84 63.6007 38.835 62.8496 43.7178C62.0985 48.6006 59.8018 53.114 56.2966 56.5953C52.7915 60.0767 48.2626 62.3426 43.3748 63.0605C38.487 63.7783 33.4978 62.9103 29.1397 60.5838C24.7815 58.2573 21.2841 54.5949 19.1607 50.1342C17.0374 45.6736 16.4 40.6497 17.3421 35.8002L13.4672 34.2502Z" fill="#C3B18D"/>
<path d="M39.8421 50.2252C37.3361 50.1881 34.9315 49.2297 33.0871 47.5328C31.2427 45.8359 30.0875 43.5194 29.8421 41.0252L25.7671 39.3252V40.0002C25.7672 42.82 26.6055 45.5761 28.1752 47.9186C29.745 50.261 31.9756 52.084 34.5836 53.1561C37.1917 54.2282 40.0595 54.501 42.8229 53.9399C45.5863 53.3788 48.1206 52.009 50.1038 50.0045C52.0871 48.0001 53.43 45.4515 53.9618 42.6823C54.4936 39.9131 54.1904 37.0483 53.0907 34.4518C51.991 31.8553 50.1445 29.6442 47.7855 28.0993C45.4266 26.5544 42.6617 25.7455 39.8421 25.7752H39.2421L40.9171 30.0002C43.4158 30.3791 45.6841 31.6744 47.2802 33.6338C48.8764 35.5932 49.6863 38.0765 49.5522 40.6002C49.418 43.124 48.3495 45.5074 46.5546 47.2866C44.7597 49.0658 42.3669 50.1133 39.8421 50.2252Z" fill="#C3B18D"/>
<path d="M15.3428 28.3498C15.5736 28.5853 15.8881 28.7201 16.2178 28.7248H25.3428L38.7678 42.1498C39.2385 42.6239 39.8783 42.8915 40.5464 42.8939C41.2145 42.8962 41.8562 42.6331 42.3303 42.1623C42.8044 41.6916 43.072 41.0518 43.0744 40.3837C43.0767 39.7156 42.8135 39.0739 42.3428 38.5998L28.6678 24.9998V16.2748C28.6631 15.9451 28.5283 15.6306 28.2928 15.3998L14.3178 1.42483C14.1431 1.25352 13.9219 1.13727 13.6818 1.09046C13.4416 1.04366 13.193 1.06837 12.9667 1.16154C12.7405 1.2547 12.5465 1.41221 12.409 1.61456C12.2714 1.8169 12.1962 2.05517 12.1928 2.29983V12.2998H2.34279C2.09814 12.3033 1.85987 12.3784 1.65753 12.516C1.45518 12.6536 1.29767 12.8475 1.2045 13.0738C1.11134 13.3 1.08663 13.5486 1.13343 13.7888C1.18023 14.029 1.29649 14.2501 1.46779 14.4248L15.3428 28.3498Z" fill="#C3B18D"/>
</svg>

<svg width="80" height="80" fill="none" xmlns="http://www.w3.org/2000/svg">
    <path d="M39.843 0a39.8 39.8 0 0 0-10.626 1.475l1.925 4.65a35.175 35.175 0 1 1-25 25l-4.65-1.95A40 40 0 1 0 39.843 0Z" fill="#C3B18D"/>
    <path d="M13.467 34.25a27.025 27.025 0 1 0 20.75-20.65l1.55 3.9a23.1 23.1 0 1 1-18.425 18.3l-3.875-1.55Z" fill="#C3B18D"/>
    <path d="M39.842 50.225a10.2 10.2 0 0 1-10-9.2l-4.075-1.7V40a14.226 14.226 0 1 0 14.075-14.225h-.6L40.917 30a10.175 10.175 0 0 1-1.075 20.225Z" fill="#C3B18D"/>
    <path d="M15.343 28.35c.23.235.545.37.875.375h9.125L38.768 42.15a2.519 2.519 0 1 0 3.575-3.55L28.668 25v-8.725a1.25 1.25 0 0 0-.375-.875L14.318 1.425a1.25 1.25 0 0 0-2.125.875v10h-9.85a1.25 1.25 0 0 0-.875 2.125L15.343 28.35Z" fill="#C3B18D"/>
</svg>
